volume-minus.svg

<svg fill="currentColor" viewBox="0 0 24 24"><path d="M3 9h4l5-5v16l-5-5H3zm11 2h8v2h-8z"/></svg>

<svg  viewBox="0 0 24 24" fill="currentColor"><path  d="M3,9H7L12,4V20L7,15H3V9M14,11H22V13H14V11Z"/></svg>
